!!!OTL: ICH GING MAL BEI DER NACHT
!!!ARE: Europa, Mitteleuropa, Deutschland, Ober - Lahnkreis, Dillkreis
!!!SCT: E0157B
!!!YEM: Copyright 1995, estate of Helmut Schaffrath.
**kern
*ICvox
*Ivox
*M2/4
*k[f#]
*G:
{8d
=1
8g
8f#
8e
8d
=2
4b}
{4dd
=3
8cc
8b
8a
8g
=4
4.a}
{8a
=5
8a
8a
8a
8dd
=6
8a
16f#
16e
8d
8r}
=7
{8g
8b
8a
8cc
=8
8.b
16cc
8dd}
{16dd
16cc
=9
8b
8b
8a
8a
=10
4g
8r}
==
!!!AGN: erzaehlendes Volks - Lied, Scherz, Schwank, Ballade ?
!!!ONB: ESAC (Essen Associative Code) Database: ERK1
!!!AMT: simple duple
!!!AIN: vox
!!!EED: Helmut Schaffrath
!!!EEV: 1.0
*-
